trunk/public/assets/images/icons/grey/move_down/decline-circle.svg

<svg width="16" height="16" xmlns="http://www.w3.org/2000/svg" viewBox="0 0 16 16" shape-rendering="geometricPrecision" fill="#6e6e6e"><defs><mask id="a"><rect fill="#fff" width="100%" height="100%"/><path fill="#000" d="M14.934-.397l-2.04 2.036L10.86-.398l-2.472 2.47 4.51 4.51 4.508-4.51z"/></mask></defs><path fill="#cb1800" d="M12.895 3.052l-2.037-2.035L9.8 2.073l3.097 3.096 3.093-3.097-1.057-1.056"/><path d="M8 1C4.132 1 1 4.135 1 8.003c.002 3.863 3.133 6.995 7 6.997 3.866-.002 7-3.134 7-6.997C15 4.135 11.866 1 8 1zm0 12.584c-3.084-.006-5.578-2.5-5.584-5.58C2.422 4.916 4.916 2.42 8 2.415c3.083.006 5.577 2.5 5.584 5.587-.007 3.08-2.5 5.575-5.585 5.58zm3.422-3.53L9.366 8l2.057-2.058-1.448-1.45L7.917 6.55 5.86 4.493 4.412 5.94 6.47 7.998l-2.06 2.058 1.45 1.45 2.06-2.058 2.055 2.057 1.447-1.45z" mask="url(#a)"/></svg>

<?xml version="1.0"?><!DOCTYPE svg PUBLIC "-//W3C//DTD SVG 1.1//EN" "http://www.w3.org/Graphics/SVG/1.1/DTD/svg11.dtd"><svg width="16px" height="16px" xmlns="http://www.w3.org/2000/svg" viewBox="0 0 16 16" shape-rendering="geometricPrecision" fill="#6e6e6e"><defs><mask id="move_down-path"><rect fill="#fff" width="100%" height="100%"/><polygon points="14.934,-0.397 12.895,1.639 10.858,-0.397 8.386,2.073 12.897,6.583 17.404,2.073 " fill="#000"/></mask></defs><polygon points="12.895,3.052 10.858,1.017 9.8,2.073 12.897,5.169 15.99,2.073 14.933,1.017 " fill="#cb1800"/><g mask="url(#move_down-path)"><path d="M7.999,1C4.133,1,1,4.135,1,8.003C1.002,11.866,4.133,14.998,7.999,15C11.866,14.998,15,11.866,15,8.003 C15,4.135,11.866,1,7.999,1z M7.999,13.584c-3.083-0.006-5.577-2.5-5.583-5.581c0.006-3.086,2.5-5.581,5.583-5.587 c3.084,0.006,5.578,2.501,5.585,5.587C13.577,11.084,11.083,13.578,7.999,13.584z M11.422,10.054L9.366,7.999l2.057-2.057 l-1.448-1.45L7.917,6.55L5.86,4.493L4.412,5.941l2.057,2.056L4.41,10.055l1.451,1.45l2.058-2.058l2.056,2.057L11.422,10.054z"/></g></svg>
